X:1
T:Bonny Breast Knot
L:1/8
M:C|
K:D
|:D|GBBG FAAF|Ee ed =c2 BA|GBBG FAAc|dAAG F2 D:|
|:g|fdfd fa ag/f/|ecec eg gf/e/|fdfd faac|dAAG F2 D:|
